packages/kaspersky-hexa-ui-icons/src/iconsSVGs/24/AlignmentRight.svg

<svg width="24" height="24" viewBox="0 0 24 24" fill="none" xmlns="http://www.w3.org/2000/svg">
<path d="M21 18C21.5523 18 22 18.4477 22 19C22 19.5523 21.5523 20 21 20H6L5.89746 19.9951C5.39333 19.9438 5 19.5177 5 19C5 18.4823 5.39333 18.0562 5.89746 18.0049L6 18H21Z" fill="black"/>
<path d="M21 11C21.5523 11 22 11.4477 22 12C22 12.5523 21.5523 13 21 13H10L9.89746 12.9951C9.39333 12.9438 9 12.5177 9 12C9 11.4823 9.39333 11.0562 9.89746 11.0049L10 11H21Z" fill="black"/>
<path d="M21 4C21.5523 4 22 4.44772 22 5C22 5.55228 21.5523 6 21 6H3C2.44772 6 2 5.55228 2 5C2 4.44772 2.44772 4 3 4H21Z" fill="black"/>
</svg>

<svg xmlns="http://www.w3.org/2000/svg" width="24" height="24" fill="none" viewBox="0 0 24 24"><path fill="#000" fill-rule="evenodd" d="M21 4c.5523 0 1 .4477 1 1s-.4477 1-1 1H3c-.5523 0-1-.4477-1-1s.4477-1 1-1zm1 8c0-.5523-.4477-1-1-1H10l-.1025.0049A1.0004 1.0004 0 0 0 9 12c0 .5177.3933.9438.8975.9951L10 13h11c.5523 0 1-.4477 1-1m-1 6c.5523 0 1 .4477 1 1s-.4477 1-1 1H6l-.1025-.0049A1.0004 1.0004 0 0 1 5 19c0-.5177.3933-.9438.8975-.9951L6 18z"/></svg>
